X:677
T:Silver Jig
C:Charles Bolton, 1982
L:1/8
M:6/8
S:Colin Hume's website,  colinhume.com  - chords can also be printed below the stave.
Q:3/8=120
H:For Olive and Denis Searls' 25th Wedding Anniversary Dance
K:G
P:A
|: D | "G"G2B d2g | "C"e2c g2e | "G/B"d2B e2d | "Am"c2A "D7"d2D |\
"G"G2B "G7"d2=f | "Cm"_e2c "F7"=f2e | "Bb"d2_B "D7"A2^F |1 "G"G3- G2 :|2 "G"G3- G Bc |
P:B
"G"d2d GAB | "C"c2d e2f | "G/B"g2d B2g | "Am"e2c "D7"ABc |\
"G"d2d GAB | "Am"c2A "D7"d2c | "Em"B2G "E7"E2D | "Am"EFG "D7"ABc |
"G"d2d GAB | "C"c2d e2f | "G/B"g2d B2g | "Am"e2c "D7"ABc |\
"G7"d2d =f_ed | "Cm"c2c "F"_edc | "Bb"_B2d "D7"e2f | "G"g3- g2 |]

